X:1
T:Title
%%score 1 2
L:1/8
Q:1/4=75
M:6/8
K:Eb
V:1 treble nm="Strings 1, Treble"
V:2 bass nm="Strings 1, Bass"
V:1
 z3 z2 [EG] | [GB]2 [GB] [Ge]2 [Ac] | [GB]3 [EG]2 [GB] | [Ge]2 [Ac] [GB]2 [EG] | %4
w: 1.~I'm~|healed,~ oh,~ hal le|lu jah!~ By~|faith~ in~ God~ a|
 [DF]3- [DF]2 [EG]/[FA]/ | [GB]2 [GB] [Ge]2 [Ac] | [GB]3 [Ge]2 E | [EG]2 [EA] [EG]2 [DF] | %8
w: lone;~ * For~ I~|feel~ the~ heav'n ly~|vir tue~ Stream~|o'er~ me~ from~ the~|
 E3- E2 [GB] | [Ge]3- [Ge]2 [Ac] | [GB]3- [GB]2 [GB] | [Ge]2 [Ac] [GB]2 [EG] | [DF]3- [DF]2 [GB] | %13
w: throne.~ * *|||||
 [Ge]3- [Ge]2 [GB] | [Ac]3- [Ac]2 [Ac] | [GB]2 [EG] [EG]2 [DF] | [B,E]6 |] %17
w: ||||
V:2
 z3 z2 [E,B,] | [E,E]2 [E,E] [E,B,]2 [E,E] | [E,E]3 [E,B,]2 [E,B,] | [E,B,]2 [E,E] [E,E]2 [E,B,] | %4
 [B,,B,]3- [B,,B,]2 [E,B,]/[E,B,]/ | [E,E]2 [E,E] [E,B,]2 [E,E] | [E,E]3 [E,B,]2 [E,G,] | %7
 [E,B,]2 [A,,C] [B,,B,]2 [B,,A,] | [E,G,]6 | z2 [E,B,] .[E,B,]3 | z2 [E,E] [E,E]2 [E,E] | %11
 [E,B,]2 [E,E] [E,E]2 [E,B,] | [B,,B,]6 | z2 [E,B,] .[E,B,]3 | z2 [A,,E] [A,,E]2 [A,,E] | %15
 [B,,E]2 [B,,B,] [B,,B,]2 [B,,A,] | [E,G,]6 |] %17

